small/extra/apps/standard/dc++.svg

<?xml version="1.0" encoding="UTF-8" standalone="no"?>
<!-- Created with Inkscape (http://www.inkscape.org/) -->

<svg
   xmlns:dc="http://purl.org/dc/elements/1.1/"
   xmlns:cc="http://creativecommons.org/ns#"
   xmlns:rdf="http://www.w3.org/1999/02/22-rdf-syntax-ns#"
   xmlns:svg="http://www.w3.org/2000/svg"
   xmlns="http://www.w3.org/2000/svg"
   xmlns:inkscape="http://www.inkscape.org/namespaces/inkscape"
   version="1.1"
   width="100%"
   height="100%"
   viewBox="0 0 512 512"
   id="svg2">
  <metadata
     id="metadata60">
    <rdf:RDF>
      <cc:Work
         rdf:about="">
        <dc:format>image/svg+xml</dc:format>
        <dc:type
           rdf:resource="http://purl.org/dc/dcmitype/StillImage" />
      </cc:Work>
    </rdf:RDF>
  </metadata>
  <defs
     id="defs58" />
  <path
     d="M 26,0 C 11.603,0 0,11.603 0,26 v 460 c 0,14.397 11.603,26 26,26 h 460 c 14.397,0 26,-11.603 26,-26 V 26 C 512,11.603 500.397,0 486,0 H 26"
     inkscape:connector-curvature="0"
     id="path4"
     style="fill:#afb922" />
  <path
     d="m 152.59,40.969 c -64.13,-0.191 -119.4,61.801 -111,125.69 2.085,39.691 30.847,68.3 57.781,94.03 l 22.375,22.375 c -34.37,38.26 -34.569,98.28 -6.5,139.44 29.482,28.956 59.42,59.5 88.69,89.5 h 282.06 c 4.259,0 8.271,-1.01 11.813,-2.813 -2.401,-2.407 -4.827,-4.829 -7.281,-7.25 2.959,2.246 6.01,4.312 9.156,6.188 7.398,-4.575 12.313,-12.757 12.313,-22.12 v -279.59 c -26.396,-26.25 -51.747,-52.35 -75.906,-79.62 -39.993,-40.469 -110.46,-42.674 -153.03,-5.03 -25.419,-23.626 -46.879,-52.36 -77.81,-69.09 -15.37,-7.542 -32.467,-11.607 -49.594,-11.625 -1.022,-0.035 -2.045,-0.059 -3.063,-0.063 m 277.94,387 c 10.954,15.537 21.891,31.06 32.781,46.625 -13.814,-13.492 -27.546,-27.711 -40.656,-40.625 -1.715,-2.491 -9.255,-6.898 2.219,-3.594 l 6.25,0.906 -0.594,-3.313 m 33.06,47.03 c 1.543,0.988 -0.406,0.664 0,0 m 25.969,26.25 c 0.666,0.177 -0.034,0.244 0,0"
     inkscape:connector-curvature="0"
     id="path6"
     style="opacity:0.25;color:#000000" />
  <text
     x="-434.51999"
     y="73.160004"
     id="text8"
     style="font-size:129.22999573px;line-height:125%;letter-spacing:0;word-spacing:0;font-family:Gentium Book Basic">
    <tspan
       x="-434.51999"
       y="73.160004"
       id="tspan10" />
  </text>
  <text
     x="88.800003"
     y="-55.560001"
     transform="scale(4.0128,0.2492)"
     id="text12"
     style="font-size:46.95399857px;text-anchor:middle;font-family:Arial" />
  <text
     x="146.75"
     y="-6.8369999"
     id="text14"
     style="font-size:129.22999573px;line-height:125%;letter-spacing:0;word-spacing:0;font-family:Gentium Book Basic">
    <tspan
       x="146.75"
       y="-6.8369999"
       id="tspan16" />
  </text>
  <text
     x="233.64999"
     y="-376.60001"
     transform="scale(4.0128,0.2492)"
     id="text18"
     style="font-size:46.95399857px;text-anchor:middle;font-family:Arial" />
  <text
     x="-924.83002"
     y="-188.10001"
     id="text20"
     style="font-size:129.22999573px;line-height:125%;letter-spacing:0;word-spacing:0;font-family:Gentium Book Basic">
    <tspan
       x="-924.83002"
       y="-188.10001"
       id="tspan22" />
  </text>
  <text
     x="-33.393002"
     y="-1103.9399"
     transform="scale(4.0128,0.2492)"
     id="text24"
     style="font-size:46.95399857px;text-anchor:middle;font-family:Arial" />
  <text
     x="173.22"
     y="-404.57001"
     id="text26"
     style="font-size:129.22999573px;line-height:125%;letter-spacing:0;word-spacing:0;font-family:Gentium Book Basic">
    <tspan
       x="173.22"
       y="-404.57001"
       id="tspan28" />
  </text>
  <text
     x="240.25"
     y="-1972.61"
     transform="scale(4.0128,0.2492)"
     id="text30"
     style="font-size:46.95399857px;text-anchor:middle;font-family:Arial" />
  <text
     x="754.48999"
     y="-484.57001"
     id="text32"
     style="font-size:129.22999573px;line-height:125%;letter-spacing:0;word-spacing:0;font-family:Gentium Book Basic">
    <tspan
       x="754.48999"
       y="-484.57001"
       id="tspan34" />
  </text>
  <text
     x="385.10001"
     y="-2293.6399"
     transform="scale(4.0128,0.2492)"
     id="text36"
     style="font-size:46.95399857px;text-anchor:middle;font-family:Arial" />
  <text
     x="365.37"
     y="-956.96997"
     id="text38"
     style="font-size:129.22999573px;line-height:125%;letter-spacing:0;word-spacing:0;font-family:Gentium Book Basic">
    <tspan
       x="365.37"
       y="-956.96997"
       id="tspan40" />
  </text>
  <text
     x="288.13"
     y="-4189.2798"
     transform="scale(4.0128,0.2492)"
     id="text42"
     style="font-size:46.95399857px;text-anchor:middle;font-family:Arial" />
  <text
     x="946.63"
     y="-1036.98"
     id="text44"
     style="font-size:129.22999573px;line-height:125%;letter-spacing:0;word-spacing:0;font-family:Gentium Book Basic">
    <tspan
       x="946.63"
       y="-1036.98"
       id="tspan46" />
  </text>
  <text
     x="432.97"
     y="-4510.3198"
     transform="scale(4.0128,0.2492)"
     id="text48"
     style="font-size:46.95399857px;text-anchor:middle;font-family:Arial" />
  <text
     x="-886.16998"
     y="377.73999"
     id="text50"
     style="font-size:208.33000183px;line-height:125%;letter-spacing:0;word-spacing:0;font-family:Gentium Book Basic">
    <tspan
       x="-886.16998"
       y="377.73999"
       id="tspan52" />
  </text>
  <path
     d="M 158.53135,41.07717 A 114.20948,114.20948 0 0 0 41,155.23859 114.20948,114.20948 0 0 0 121.92915,264.26742 c 22.383,-21.278 51.891,-34.92 83.31,-34.891 8.665,-0.301 17.316,0.492 25.871,1.918 -0.735,-3.998 -1.324,-8.04 -1.608,-12.13 -3.896,-35.978 10.43,-71.37 34.79,-97.26 A 114.20948,114.20948 0 0 0 158.53365,41.07632 M 360.10477,94.78714 A 114.20948,114.20948 0 0 0 242.57345,208.94855 114.21328,114.21328 0 0 0 471,208.94855 114.20948,114.20948 0 0 0 360.10477,94.78714 M 212.29402,242.59645 A 114.20948,114.20948 0 0 0 94.7627,356.75786 a 114.21328,114.21328 0 0 0 228.42656,0 114.20948,114.20948 0 0 0 -2.9033,-25.24823 C 280.23,319.1 246.91,285.73 234.49,245.5 a 114.20948,114.20948 0 0 0 -22.18943,-2.90328"
     inkscape:connector-curvature="0"
     id="path54"
     style="color:#000000;fill:#ffffff" />
</svg>

<?xml version="1.0" encoding="UTF-8" standalone="no"?>
<!-- Created with Inkscape (http://www.inkscape.org/) -->
<svg id="svg2" xmlns:rdf="http://www.w3.org/1999/02/22-rdf-syntax-ns#" xmlns="http://www.w3.org/2000/svg" height="100%" width="100%" version="1.1" xmlns:cc="http://creativecommons.org/ns#" viewBox="0 0 512 512" xmlns:dc="http://purl.org/dc/elements/1.1/">
 <metadata id="metadata60">
  <rdf:RDF>
   <cc:Work rdf:about="">
    <dc:format>image/svg+xml</dc:format>
    <dc:type rdf:resource="http://purl.org/dc/dcmitype/StillImage"/>
   </cc:Work>
  </rdf:RDF>
 </metadata>
 <path id="path4" d="m26 0c-14.397 0-26 11.603-26 26v460c0 14.397 11.603 26 26 26h460c14.397 0 26-11.603 26-26v-460c0-14.397-11.6-26-26-26h-460" fill="#afb922"/>
 <path id="path6" opacity=".25" style="color:#000000" d="m152.59 40.969c-64.13-0.191-119.4 61.801-111 125.69 2.085 39.691 30.847 68.3 57.781 94.03l22.375 22.375c-34.37 38.26-34.569 98.28-6.5 139.44 29.482 28.956 59.42 59.5 88.69 89.5h282.06c4.259 0 8.271-1.01 11.813-2.813-2.401-2.407-4.827-4.829-7.281-7.25 2.959 2.246 6.01 4.312 9.156 6.188 7.398-4.575 12.313-12.757 12.313-22.12v-279.59c-26.396-26.25-51.747-52.35-75.906-79.62-39.993-40.469-110.46-42.674-153.03-5.03-25.419-23.626-46.879-52.36-77.81-69.09-15.37-7.542-32.467-11.607-49.594-11.625-1.022-0.035-2.045-0.059-3.063-0.063m277.94 387c10.954 15.537 21.891 31.06 32.781 46.625-13.814-13.492-27.546-27.711-40.656-40.625-1.715-2.491-9.255-6.898 2.219-3.594l6.25 0.906-0.594-3.313m33.06 47.03c1.543 0.988-0.406 0.664 0 0m25.969 26.25c0.666 0.177-0.034 0.244 0 0"/>
 <text id="text8" style="word-spacing:0;letter-spacing:0" font-size="129.23px" line-height="125%" y="73.160004" x="-434.51999" font-family="Gentium Book Basic">
  <tspan id="tspan10" y="73.160004" x="-434.51999"/>
 </text>
 <text id="text12" style="text-anchor:middle" transform="scale(4.0128 .2492)" font-size="46.954px" y="-55.560001" x="88.800003" font-family="Arial"/>
 <text id="text14" style="word-spacing:0;letter-spacing:0" font-size="129.23px" line-height="125%" y="-6.8369999" x="146.75" font-family="Gentium Book Basic">
  <tspan id="tspan16" y="-6.8369999" x="146.75"/>
 </text>
 <text id="text18" style="text-anchor:middle" transform="scale(4.0128 .2492)" font-size="46.954px" y="-376.60001" x="233.64999" font-family="Arial"/>
 <text id="text20" style="word-spacing:0;letter-spacing:0" font-size="129.23px" line-height="125%" y="-188.10001" x="-924.83002" font-family="Gentium Book Basic">
  <tspan id="tspan22" y="-188.10001" x="-924.83002"/>
 </text>
 <text id="text24" style="text-anchor:middle" transform="scale(4.0128 .2492)" font-size="46.954px" y="-1103.9399" x="-33.393002" font-family="Arial"/>
 <text id="text26" style="word-spacing:0;letter-spacing:0" font-size="129.23px" line-height="125%" y="-404.57001" x="173.22" font-family="Gentium Book Basic">
  <tspan id="tspan28" y="-404.57001" x="173.22"/>
 </text>
 <text id="text30" style="text-anchor:middle" transform="scale(4.0128 .2492)" font-size="46.954px" y="-1972.61" x="240.25" font-family="Arial"/>
 <text id="text32" style="word-spacing:0;letter-spacing:0" font-size="129.23px" line-height="125%" y="-484.57001" x="754.48999" font-family="Gentium Book Basic">
  <tspan id="tspan34" y="-484.57001" x="754.48999"/>
 </text>
 <text id="text36" style="text-anchor:middle" transform="scale(4.0128 .2492)" font-size="46.954px" y="-2293.6399" x="385.10001" font-family="Arial"/>
 <text id="text38" style="word-spacing:0;letter-spacing:0" font-size="129.23px" line-height="125%" y="-956.96997" x="365.37" font-family="Gentium Book Basic">
  <tspan id="tspan40" y="-956.96997" x="365.37"/>
 </text>
 <text id="text42" style="text-anchor:middle" transform="scale(4.0128 .2492)" font-size="46.954px" y="-4189.2798" x="288.13" font-family="Arial"/>
 <text id="text44" style="word-spacing:0;letter-spacing:0" font-size="129.23px" line-height="125%" y="-1036.98" x="946.63" font-family="Gentium Book Basic">
  <tspan id="tspan46" y="-1036.98" x="946.63"/>
 </text>
 <text id="text48" style="text-anchor:middle" transform="scale(4.0128 .2492)" font-size="46.954px" y="-4510.3198" x="432.97" font-family="Arial"/>
 <text id="text50" style="word-spacing:0;letter-spacing:0" font-size="208.33px" line-height="125%" y="377.73999" x="-886.16998" font-family="Gentium Book Basic">
  <tspan id="tspan52" y="377.73999" x="-886.16998"/>
 </text>
 <path id="path54" style="color:#000000" d="m158.53 41.077a114.21 114.21 0 0 0 -117.53 114.16 114.21 114.21 0 0 0 80.93 109.03c22.383-21.278 51.891-34.92 83.31-34.891 8.665-0.301 17.316 0.492 25.871 1.918-0.735-3.998-1.324-8.04-1.608-12.13-3.896-35.978 10.43-71.37 34.79-97.26a114.21 114.21 0 0 0 -105.76 -80.834m201.57 53.711a114.21 114.21 0 0 0 -117.53 114.16 114.21 114.21 0 0 0 228.43 0 114.21 114.21 0 0 0 -110.9 -114.16m-147.81 147.81a114.21 114.21 0 0 0 -117.53 114.16 114.21 114.21 0 0 0 228.43 0 114.21 114.21 0 0 0 -2.9033 -25.248c-40.06-12.41-73.38-45.78-85.8-86.01a114.21 114.21 0 0 0 -22.189 -2.9033" fill="#fff"/>
</svg>
